X:268
T:The Merry Dancers  
O: No 268 Wm Clarke MS    Feltwell, Norfolk
Z:Transcribed Mary Humphreys 2008
M:6/8
L:1/8
K:C
f|ede fcA|cdc c2f|ede fcA|\GAG G2f|ede fcA|edc c2f|e/f/ge f2e|dBG G2:||
:f|(e/f/ge) cdc|(e/f/ge)cde|dBA G2f|(e/f/ge) cdc|e/f/ge f2a|gfe f2e|dBG G2:||
: c'|bab c'ge|c'ge c2c'|bab c'ge|dBG G2 c'|bab c'ge|gab c'ge|f2 d'e2 c'|dBG G2:||

